X: 36
T: Monk's March with the Wanders
M:2/2
R:March
L:1/8
Z:Alf Warnock - alf0@rogers.com
Q:1/2=120
K:F
"Dm"FD3 F4| "F"cA3 c4| A2c2 BAGF|"C"E2A2 GEDC|
"Dm"FD3 F4| "F"cA3 f4| "C"e2f2 efed|"Am"c2A2 A4:|
"F"f3g a2g2|f2c2 c2A2|"Gm"B2G2 d3c|"C"B2G2 G2AB|
"F"cAFA c2BA|"C"GECE G2FE|"Dm"D2D2 "A"A3G|[1 "Dm"F2D2 D4:|[2 "Dm"F2D2 D3||
M:6/8
Q:3/8=120
|:E|"Dm"F>ED DFA|A>BA d2e|fed "Gm"efe|"Am"cAA A2:|
|:G|"F"ABc c2G|ABc c2A|"Gm"Bcdd2A|"(Bb)"Bcdd2e|
"F"fed cBA|"Gm"BAG "Dm"F2E|FGA "A"A>BA|[1 "Dm"FDD D2:|[2 "Dm"FDD D3|]
